;FLAVOR:Marlin
;TIME:3275
;Filament used: 1.11982m
;Layer height: 0.12
;MINX:74.836
;MINY:54.482
;MINZ:0.3
;MAXX:145.164
;MAXY:127.664
;MAXZ:4.98
;Generated with Cura_SteamEngine 4.9.0
M140 S65
M105
M190 S65
M104 S210
M105
M109 S210
M82 ;absolute extrusion mode
; Ender 3 Custom Start G-code
G92 E0 ; Reset Extruder
G28 ; Home all axes
G1 Z2.0 F3000 ; Move Z Axis up little to prevent scratching of Heat Bed
G1 X0.1 Y20 Z0.3 F5000.0 ; Move to start position
G1 X0.1 Y200.0 Z0.3 F1500.0 E15 ; Draw the first line
G1 X0.4 Y200.0 Z0.3 F5000.0 ; Move to side a little
G1 X0.4 Y20 Z0.3 F1500.0 E30 ; Draw the second line
G92 E0 ; Reset Extruder
G1 Z2.0 F3000 ; Move Z Axis up little to prevent scratching of Heat Bed
G1 X5 Y20 Z0.3 F5000.0 ; Move over to prevent blob squish
G92 E0
G92 E0
G1 F1500 E-6.5
;LAYER_COUNT:40
;LAYER:0
M107
G0 F6000 X97.721 Y55.425 Z0.3
;TYPE:SKIRT
G1 F1500 E0
G1 F1200 X102.388 Y55.429 E0.27941
G1 X102.218 Y56.106 E0.32119
G1 X97.892 Y56.106 E0.58018
G1 X97.721 Y55.425 E0.62222
G1 F1500 E-5.87778
G0 F6000 X97.752 Y57.113
G0 X78.822 Y81.344
G0 X84.302 Y57.113
G0 X83.742 Y54.868
G0 X83.254 Y54.484
G0 X76.244 Y54.482
G0 X75.894 Y54.64
G0 X75.636 Y54.926
G0 X75.516 Y55.239
G0 X74.836 Y93.07
G0 X74.839 Y98.483
G0 X75.439 Y100.733
G0 X75.737 Y101.031
G0 X76.46 Y101.64
G1 F1500 E0.62222
G1 F1200 X76.46 Y117.26 E1.55736
G1 X76.34 Y117.26 E1.56455
G1 X76.34 Y101.64 E2.49969
G1 X76.46 Y101.64 E2.50687
G0 F6000 X91.66 Y126.04
G1 F1200 X91.66 Y126.16 E2.51406
G1 X85.54 Y126.16 E2.88045
G1 X85.54 Y126.04 E2.88763
G1 X91.66 Y126.04 E3.25403
G1 F1500 E-3.24597
G0 F6000 X92.039 Y126.533
G0 X92.567 Y127.061
G0 X97.133 Y127.061
G0 X97.431 Y126.763
G0 X98.04 Y126.04
G1 F1500 E3.25403
G1 F1200 X104.16 Y126.04 E3.62042
G1 X104.16 Y126.16 E3.62761
G1 X98.04 Y126.16 E3.994
G1 X98.04 Y126.04 E4.00118
G1 F1500 E-2.49882
G0 F6000 X107.317 Y127.661
G0 X122.383 Y127.661
G0 X124.633 Y127.061
G0 X124.931 Y126.763
G0 X125.54 Y126.04
G1 F1500 E4.00118
G1 F1200 X134.76 Y126.04 E4.55317
G1 X134.76 Y126.16 E4.56035
G1 X125.54 Y126.16 E5.11234
G1 X125.54 Y126.04 E5.11952
G0 F6000 X143.54 Y102.94
G1 F1200 X143.66 Y102.94 E5.12671
G1 X143.66 Y112.66 E5.70863
G1 X143.54 Y112.66 E5.71581
G1 X143.54 Y102.94 E6.29773
G1 F1500 E-0.20227
;MESH:mii-router-v2_inlay-t3.stl
G0 F6000 X144.033 Y102.561
G0 X144.561 Y102.033
G0 X145.161 Y99.783
G0 X145.164 Y93.088
G0 X143.542 Y86.811
G0 X143.542 Y85.786
G0 X141.833 Y84.756
G0 X141.383 Y83.152
;TYPE:WALL-INNER
G1 F1500 E6.29773
G1 F1200 X141.478 Y83.123 E6.30368
G1 X141.656 Y83.029 E6.31573
G1 X141.889 Y82.905 E6.33153
G1 X142.248 Y82.609 E6.35939
G1 X142.455 Y82.355 E6.379
G1 X142.536 Y82.256 E6.38666
G1 X142.601 Y82.135 E6.39488
G1 X142.604 Y82.128 E6.39534
G1 X142.644 Y82.057 E6.40022
G1 X142.676 Y82.083
G1 X142.739 Y82.134 E6.40337
G1 X142.775 Y82.164 E6.40618
G1 X143.004 Y82.351 E6.42388
G1 X143.01 Y82.356 E6.42435
G1 X143.639 Y82.058 E6.46602
G1 X143.98 Y81.896 E6.48862
G1 X143.98 Y82.273 E6.50165
G1 X143.98 Y82.274 E6.50171
G1 X143.98 Y84.946 E6.66168
G1 X141.917 Y84.946 E6.78519
G1 X141.507 Y84.946 E6.80974
G1 X141.709 Y84.589 E6.82369
G1 X141.97 Y84.128 E6.85541
G1 X141.5 Y83.346 E6.91003
G1 X141.396 Y83.173 E6.9186
G1 X141.383 Y83.152
G0 F6000 X141.295 Y82.677
G1 F1200 X141.621 Y82.504 E6.9407
G1 X141.906 Y82.269 E6.96281
G1 X142.136 Y81.987 E6.9846
G1 X142.285 Y81.714 E7.00322
G1 X142.311 Y81.665 E7.00654
G1 X142.418 Y81.31 E7.02874
G1 X142.423 Y81.258 E7.03187
G1 X142.445 Y81.276
G1 X142.555 Y81.365 E7.03297
G1 X142.598 Y81.4 E7.03604
G1 X143.078 Y81.792 E7.07314
G1 X143.9 Y81.402 E7.12761
G1 X143.9 Y58.14 E8.52027
G1 X143.078 Y57.75 E8.57474
G1 X142.599 Y58.14 E8.61172
G1 X142.556 Y58.175 E8.61504
G1 X142.446 Y58.265 E8.62355
G1 X142.423 Y58.284 E8.62533
G1 X142.418 Y58.231
G1 X142.311 Y57.876 E8.64017
G1 X142.285 Y57.827 E8.64325
G1 X142.136 Y57.554 E8.66187
G1 X141.906 Y57.272 E8.68365
G1 X141.621 Y57.037 E8.70577
G1 X141.296 Y56.864 E8.72781
G1 X140.946 Y56.758 E8.7497
G1 X140.58 Y56.723 E8.77171
G1 X140.449 Y56.736 E8.7796
G1 X140.372 Y56.426 E8.79872
G1 X104.259 Y56.426 E10.96074
G1 X104.258 Y56.426 E10.9608
G1 X103.953 Y56.426 E10.97906
G1 X104.027 Y56.13 E10.99014
G1 X104.093 Y55.866 E11.00643
G1 X144.46 Y55.866 E13.42313
G1 X144.46 Y85.187 E15.17853
G1 X144.46 Y85.426 E15.19284
G1 X144.221 Y85.426 E15.2021
G1 X76.9 Y85.425 E19.23249
G1 X76.9 Y84.766 E19.27195
G1 X77.5 Y84.766 E19.30787
G1 X77.5 Y83.549 E19.38073
G1 X77.5 Y83.548 E19.38079
G1 X77.5 Y83.171 E19.40336
G1 X77.841 Y83.333 E19.41641
G1 X78.282 Y83.542 E19.44563
G1 X78.762 Y83.151 E19.48269
G1 X78.806 Y83.115 E19.4861
G1 X78.914 Y83.027 E19.49444
G1 X78.937 Y83.008 E19.49622
G1 X78.942 Y83.061
G1 X79.05 Y83.414 E19.51103
G1 X79.076 Y83.464 E19.51415
G1 X79.222 Y83.736 E19.53263
G1 X79.454 Y84.02 E19.55458
G1 X79.739 Y84.254 E19.57666
G1 X80.065 Y84.427 E19.59876
G1 X80.415 Y84.532 E19.62063
G1 X80.78 Y84.57 E19.6426
G1 X80.912 Y84.556 E19.65055
G1 X80.991 Y84.866 E19.6697
G1 X141 Y84.866 E23.26233
G1 X141.414 Y84.135 E23.31263
G1 X140.753 Y83.036 E23.38941
G1 X140.693 Y82.935 E23.39644
G1 X140.621 Y82.816 E23.40477
G1 X140.946 Y82.782 E23.41592
G1 X141.059 Y82.748 E23.42192
G1 X141.295 Y82.677 E23.43668
G0 F6000 X140.25 Y82.501
G0 X140.309 Y82.309
;TYPE:WALL-OUTER
G1 F1200 X140.58 Y82.337 E23.45299
G1 X140.852 Y82.309 E23.46936
G1 X141.112 Y82.231 E23.48561
G1 X141.353 Y82.103 E23.50195
G1 X141.564 Y81.929 E23.51832
G1 X141.736 Y81.718 E23.53462
G1 X141.866 Y81.479 E23.55091
G1 X141.945 Y81.217 E23.56729
G1 X141.971 Y80.946 E23.58359
G1 X141.945 Y80.674 E23.59995
G1 X141.866 Y80.412 E23.61633
G1 X141.736 Y80.173 E23.63262
G1 X141.564 Y79.962 E23.64891
G1 X141.353 Y79.788 E23.66529
G1 X141.112 Y79.66 E23.68162
G1 X140.852 Y79.581 E23.69789
G1 X140.58 Y79.555 E23.71425
G1 X140.309 Y79.581 E23.73055
G1 X140.048 Y79.66 E23.74688
G1 X139.807 Y79.788 E23.76321
G1 X139.596 Y79.962 E23.77959
G1 X139.423 Y80.173 E23.79592
G1 X139.295 Y80.412 E23.81215
G1 X139.215 Y80.674 E23.82855
G1 X139.189 Y80.946 E23.84491
G1 X139.215 Y81.217 E23.86121
G1 X139.295 Y81.479 E23.87761
G1 X139.423 Y81.718 E23.89384
G1 X139.596 Y81.929 E23.91018
G1 X139.807 Y82.103 E23.92655
G1 X140.048 Y82.231 E23.94289
G1 X140.309 Y82.309 E23.9592
G1 F1500 E17.4592
G0 F6000 X140.249 Y82.501
G0 X139.837 Y82.239
G0 X140.312 Y81.347
G0 X140.58 Y60.91
G0 X140.58 Y60.226
G0 X140.309 Y59.959
G1 F1500 E23.9592
G1 F1200 X140.58 Y59.987 E23.97551
G1 X140.852 Y59.959 E23.99188
G1 X141.112 Y59.881 E24.00813
G1 X141.353 Y59.753 E24.02447
G1 X141.564 Y59.579 E24.04084
G1 X141.736 Y59.368 E24.05714
G1 X141.866 Y59.129 E24.07342
G1 X141.945 Y58.867 E24.08981
G1 X141.971 Y58.596 E24.10611
G1 X141.945 Y58.324 E24.12247
G1 X141.866 Y58.062 E24.13885
G1 X141.736 Y57.823 E24.15514
G1 X141.564 Y57.612 E24.17143
G1 X141.353 Y57.438 E24.18781
G1 X141.112 Y57.31 E24.20414
G1 X140.852 Y57.231 E24.22041
G1 X140.58 Y57.205 E24.23677
G1 X140.309 Y57.231 E24.25307
G1 X140.048 Y57.31 E24.2694
G1 X139.807 Y57.438 E24.28573
G1 X139.596 Y57.612 E24.30211
G1 X139.423 Y57.823 E24.31844
G1 X139.295 Y58.062 E24.33467
G1 X139.215 Y58.324 E24.35107
G1 X139.189 Y58.596 E24.36743
G1 X139.215 Y58.867 E24.38373
G1 X139.295 Y59.129 E24.40013
G1 X139.423 Y59.368 E24.41636
G1 X139.596 Y59.579 E24.4327
G1 X139.807 Y59.753 E24.44907
G1 X140.048 Y59.881 E24.46541
G1 X140.309 Y59.959 E24.48172
G1 F1500 E17.98172
G0 F6000 X139.43 Y59.75
G0 X138.685 Y59.921
G0 X82.388 Y58.532
G0 X81.523 Y59.052
G0 X80.78 Y58.814
G0 X78.716 Y59.234
;TYPE:WALL-INNER
G1 F1500 E24.48172
G1 F1200 X78.684 Y59.208 E24.48418
G1 X78.584 Y59.126 E24.49193
G1 X78.35 Y58.936 E24.50997
G1 X77.98 Y59.112 E24.5345
G1 X77.98 Y58.936 E24.53567
G1 X77.98 Y56.696 E24.66977
G1 X77.38 Y56.696 E24.70569
G1 X77.38 Y56.346 E24.72665
G1 X77.98 Y56.346 E24.7529
G1 X79.443 Y56.346 E24.84048
G1 X79.853 Y56.346 E24.86503
G1 X79.651 Y56.703 E24.87898
G1 X79.39 Y57.164 E24.9107
G1 X79.861 Y57.946 E24.96535
G1 X79.964 Y58.117 E24.9773
G1 X79.977 Y58.139 E24.97883
G1 X79.88 Y58.168 E24.98193
G1 X79.704 Y58.262 E24.99043
G1 X79.471 Y58.386 E25.00623
G1 X79.112 Y58.68 E25.03401
G1 X78.903 Y58.938 E25.05389
G1 X78.821 Y59.038 E25.06014
G1 X78.759 Y59.154 E25.06506
G1 X78.716 Y59.234 E25.0676
G0 F6000 X79.076 Y59.578
G1 F1200 X79.05 Y59.627 E25.07092
G1 X78.942 Y59.98 E25.09302
G1 X78.937 Y60.033 E25.09621
G1 X78.915 Y60.015
G1 X78.807 Y59.927 E25.09962
G1 X78.764 Y59.892 E25.10269
G1 X78.282 Y59.5 E25.13988
G1 X77.841 Y59.709 E25.1691
G1 X77.5 Y59.871 E25.1917
G1 X77.5 Y59.494 E25.20474
G1 X77.5 Y59.493 E25.2048
G1 X77.5 Y57.176 E25.34351
G1 X76.9 Y57.176 E25.37943
G1 X76.9 Y55.866 E25.45786
G1 X82.567 Y55.866 E25.79713
G1 X82.633 Y56.13 E25.81343
G1 X82.707 Y56.426 E25.83169
G1 X82.402 Y56.426 E25.84277
G1 X82.401 Y56.426 E25.84283
G1 X80.36 Y56.426 E25.96502
G1 X79.946 Y57.157 E26.01531
G1 X80.606 Y58.255 E26.09201
G1 X80.667 Y58.356 E26.09907
G1 X80.74 Y58.477 E26.10753
G1 X80.416 Y58.508 E26.11855
G1 X80.302 Y58.542 E26.12458
G1 X80.064 Y58.614 E26.13946
G1 X79.739 Y58.787 E26.16151
G1 X79.454 Y59.021 E26.18358
G1 X79.222 Y59.305 E26.20554
G1 X79.076 Y59.578 E26.22407
G1 F1500 E19.72407
G0 F6000 X79.358 Y60.84
G0 X79.858 Y61.03
G0 X80.156 Y61.331
G0 X81.052 Y61.709
;TYPE:WALL-OUTER
G1 F1500 E26.22407
G1 F1200 X81.312 Y61.631 E26.24032
G1 X81.553 Y61.503 E26.25666
G1 X81.764 Y61.329 E26.27303
G1 X81.936 Y61.118 E26.28933
G1 X82.066 Y60.879 E26.30562
G1 X82.145 Y60.617 E26.322
G1 X82.171 Y60.346 E26.3383
G1 X82.145 Y60.074 E26.35466
G1 X82.066 Y59.812 E26.37104
G1 X81.936 Y59.573 E26.38733
G1 X81.764 Y59.362 E26.40363
G1 X81.553 Y59.188 E26.42
G1 X81.312 Y59.06 E26.43634
G1 X81.052 Y58.981 E26.45261
G1 X80.78 Y58.955 E26.46897
G1 X80.509 Y58.981 E26.48526
G1 X80.248 Y59.06 E26.50159
G1 X80.007 Y59.188 E26.51793
G1 X79.796 Y59.362 E26.5343
G1 X79.623 Y59.573 E26.55064
G1 X79.495 Y59.812 E26.56687
G1 X79.415 Y60.074 E26.58327
G1 X79.389 Y60.346 E26.59963
G1 X79.415 Y60.617 E26.61592
G1 X79.495 Y60.879 E26.63233
G1 X79.623 Y61.118 E26.64856
G1 X79.796 Y61.329 E26.66489
G1 X80.007 Y61.503 E26.68127
G1 X80.248 Y61.631 E26.6976
G1 X80.509 Y61.709 E26.71391
G1 X80.78 Y61.737 E26.73022
G1 X81.052 Y61.709 E26.74659
G1 F1500 E20.24659
G0 F6000 X80.78 Y61.976
G0 X80.78 Y62.66
G0 X80.968 Y83.139
G0 X81.185 Y84.138
G0 X81.052 Y84.059
G1 F1500 E26.74659
G1 F1200 X81.312 Y83.981 E26.76284
G1 X81.553 Y83.853 E26.77918
G1 X81.764 Y83.679 E26.79555
G1 X81.936 Y83.468 E26.81185
G1 X82.066 Y83.229 E26.82814
G1 X82.145 Y82.967 E26.84452
G1 X82.171 Y82.696 E26.86082
G1 X82.145 Y82.424 E26.87718
G1 X82.066 Y82.162 E26.89356
G1 X81.936 Y81.923 E26.90985
G1 X81.764 Y81.712 E26.92615
G1 X81.553 Y81.538 E26.94252
G1 X81.312 Y81.41 E26.95886
G1 X81.052 Y81.331 E26.97513
G1 X80.78 Y81.305 E26.99148
G1 X80.509 Y81.331 E27.00778
G1 X80.248 Y81.41 E27.02411
G1 X80.007 Y81.538 E27.04045
G1 X79.796 Y81.712 E27.05682
G1 X79.623 Y81.923 E27.07316
G1 X79.495 Y82.162 E27.08939
G1 X79.415 Y82.424 E27.10579
G1 X79.389 Y82.696 E27.12215
G1 X79.415 Y82.967 E27.13844
G1 X79.495 Y83.229 E27.15484
G1 X79.623 Y83.468 E27.17108
G1 X79.796 Y83.679 E27.18741
G1 X80.007 Y83.853 E27.20378
G1 X80.248 Y83.981 E27.22012
G1 X80.509 Y84.059 E27.23643
G1 X80.78 Y84.087 E27.25274
G1 X81.052 Y84.059 E27.26911
G1 F1500 E20.76911
G0 F6000 X81.071 Y84.259
G0 X76.59 Y85.735
G0 X76.43 Y85.905
G1 F1500 E27.26911
G1 F1200 X76.42 Y85.878 E27.27083
G1 X76.42 Y84.286 E27.36614
G1 X77.02 Y84.286 E27.40207
G1 X77.02 Y57.656 E28.99636
G1 X76.42 Y57.656 E29.03228
G1 X76.42 Y55.406 E29.16698
G1 X76.438 Y55.386 E29.16859
G1 X82.942 Y55.386 E29.55798
G1 X83.322 Y56.906 E29.65178
G1 X80.64 Y56.906 E29.81234
G1 X80.502 Y57.15 E29.82913
G1 X81.946 Y59.553 E29.99696
G1 X82.081 Y59.804 E30.01403
G1 X82.162 Y60.072 E30.03079
G1 X82.189 Y60.346 E30.04727
G1 X82.163 Y60.617 E30.06357
G1 X82.081 Y60.887 E30.08046
G1 X81.953 Y61.126 E30.0967
G1 X81.776 Y61.341 E30.11337
G1 X81.561 Y61.518 E30.13004
G1 X81.322 Y61.646 E30.14627
G1 X81.054 Y61.727 E30.16303
G1 X80.78 Y61.755 E30.17952
G1 X80.506 Y61.727 E30.19601
G1 X80.239 Y61.646 E30.21272
G1 X79.999 Y61.517 E30.22903
G1 X78.214 Y60.064 E30.36682
G1 X77.94 Y60.194 E30.38498
G1 X77.94 Y82.848 E31.74123
G1 X78.214 Y82.978 E31.75939
G1 X79.999 Y81.523 E31.89726
G1 X80.239 Y81.395 E31.91354
G1 X80.506 Y81.314 E31.93025
G1 X80.78 Y81.287 E31.94673
G1 X81.054 Y81.314 E31.96322
G1 X81.322 Y81.395 E31.97998
G1 X81.561 Y81.523 E31.99621
G1 X81.776 Y81.7 E32.01288
G1 X81.953 Y81.915 E32.02955
G1 X82.081 Y82.154 E32.04578
G1 X82.162 Y82.422 E32.06255
G1 X82.189 Y82.696 E32.07903
G1 X82.163 Y82.967 E32.09533
G1 X82.081 Y83.237 E32.11222
G1 X81.953 Y83.476 E32.12845
G1 X81.776 Y83.691 E32.14513
G1 X81.561 Y83.868 E32.1618
G1 X81.272 Y84.024 E32.18146
G1 X81.364 Y84.386 E32.20382
G1 X140.72 Y84.386 E35.75736
G1 X140.858 Y84.142 E35.77414
G1 X139.414 Y81.738 E35.94203
G1 X139.279 Y81.486 E35.95915
G1 X139.198 Y81.217 E35.97597
G1 X139.171 Y80.946 E35.99227
G1 X139.199 Y80.672 E36.00876
G1 X139.279 Y80.405 E36.02545
G1 X139.409 Y80.163 E36.04189
G1 X139.584 Y79.95 E36.0584
G1 X139.8 Y79.773 E36.07512
G1 X140.039 Y79.645 E36.09135
G1 X140.306 Y79.564 E36.10805
G1 X140.58 Y79.537 E36.12454
G1 X140.854 Y79.564 E36.14102
G1 X141.122 Y79.645 E36.15778
G1 X141.362 Y79.773 E36.17407
G1 X143.146 Y81.228 E36.31189
G1 X143.42 Y81.098 E36.33004
G1 X143.42 Y58.444 E37.6863
G1 X143.146 Y58.314 E37.70446
G1 X141.362 Y59.768 E37.84224
G1 X141.122 Y59.896 E37.85853
G1 X140.854 Y59.977 E37.87529
G1 X140.58 Y60.005 E37.89178
G1 X140.306 Y59.977 E37.90827
G1 X140.039 Y59.896 E37.92497
G1 X139.8 Y59.768 E37.9412
G1 X139.584 Y59.591 E37.95792
G1 X139.409 Y59.378 E37.97442
G1 X139.279 Y59.136 E37.99087
G1 X139.198 Y58.867 E38.00769
G1 X139.171 Y58.596 E38.02399
G1 X139.199 Y58.322 E38.04048
G1 X139.279 Y58.055 E38.05717
G1 X139.409 Y57.813 E38.07362
G1 X139.584 Y57.6 E38.09012
G1 X139.798 Y57.425 E38.10667
G1 X140.088 Y57.269 E38.12638
G1 X139.997 Y56.906 E38.14879
G1 X103.338 Y56.906 E40.3435
G1 X103.718 Y55.386 E40.4373
G1 X144.923 Y55.386 E42.90417
G1 X144.94 Y55.406 E42.90574
G1 X144.94 Y85.878 E44.73005
G1 X144.915 Y85.906 E44.73229
G1 X76.43 Y85.905 E48.83237
G0 F6000 X76.59 Y85.735
G0 X77.98 Y84.945
;TYPE:WALL-INNER
G1 F1200 X77.98 Y84.106 E48.8826
G1 X77.98 Y83.93 E48.89314
G1 X78.35 Y84.106 E48.90828
G1 X78.356 Y84.101 E48.90875
G1 X78.582 Y83.917 E48.9262
G1 X78.682 Y83.835 E48.93394
G1 X78.716 Y83.807 E48.93657
G1 X78.754 Y83.879 E48.94145
G1 X78.758 Y83.886
G1 X78.821 Y84.003 E48.94639
G1 X78.903 Y84.103 E48.95414
G1 X79.112 Y84.361 E48.97401
G1 X79.267 Y84.488 E48.98601
G1 X79.472 Y84.655 E49.00184
G1 X79.882 Y84.873 E49.02964
G1 X80.121 Y84.945 E49.04458
G1 X79.882 Y84.945 E49.04552
G1 X79.472 Y84.945 E49.05428
G1 X79.207 Y84.945 E49.0672
G1 X77.98 Y84.945 E49.14066
G1 F1500 E42.64066
G0 F6000 X140.798 Y84.52
G0 X141.013 Y84.14
G0 X142.083 Y81.243
G0 X143.127 Y81.384
G0 X143.553 Y81.181
G0 X143.553 Y58.361
G0 X141.241 Y56.346
G1 F1500 E49.14066
G1 F1200 X141.48 Y56.346 E49.15497
G1 X141.889 Y56.346 E49.17945
G1 X142.152 Y56.346 E49.1952
G1 X143.98 Y56.346 E49.30464
G1 X143.98 Y57.268 E49.35984
G1 X143.98 Y57.269 E49.3599
G1 X143.98 Y57.646 E49.38247
G1 X143.639 Y57.484 E49.39552
G1 X143.01 Y57.186 E49.43719
G1 X142.677 Y57.457 E49.46289
G1 X142.644 Y57.484 E49.46545
G1 X142.603 Y57.408
G1 X142.536 Y57.285 E49.47072
G1 X142.248 Y56.932 E49.498
G1 X142.092 Y56.803 E49.51012
G1 X141.889 Y56.636 E49.52292
G1 X141.48 Y56.418 E49.5349
G1 X141.241 Y56.346 E49.53644
G0 F6000 X142.702 Y57.201
G0 X143.173 Y57.14
G0 X143.327 Y56.816
;TYPE:SKIN
G1 F1200 X143.51 Y56.816 E49.54739
G1 X143.51 Y56.903 E49.5526
G1 X143.327 Y56.816 E49.56473
G0 F6000 X143.102 Y56.835
;TYPE:SKIN
G1 F1200 X142.812 Y56.545 E49.57496
G0 F6000 X142.53 Y56.545
G1 F1200 X142.955 Y56.97 E49.58996
G0 F6000 X142.799 Y57.098
G1 F1200 X142.247 Y56.545 E49.60945
G0 F6000 X143.095 Y56.545
G1 F1200 X143.153 Y56.603 E49.61149
G0 F6000 X143.153 Y56.456
G0 X143.798 Y56.528
G0 X143.553 Y81.181
G0 X143.357 Y82.314
G0 X143.51 Y82.639
;TYPE:SKIN
